material/.icons/material/pencil-ruler.svg

<svg xmlns="http://www.w3.org/2000/svg" viewBox="0 0 24 24"><path d="M3 17.25V21h3.75L17.81 9.93l-3.75-3.75L3 17.25m19.61 1.11l-4.25 4.25-5.2-5.2 1.77-1.77 1 1 2.47-2.48 1.42 1.42L18.36 17l1.06 1 1.42-1.4 1.77 1.76m-16-7.53L1.39 5.64l4.25-4.25L7.4 3.16 4.93 5.64 6 6.7l2.46-2.48 1.42 1.42-1.42 1.41 1 1-2.85 2.78M20.71 7c.39-.39.39-1 0-1.41l-2.34-2.3c-.37-.39-1.02-.39-1.41 0l-1.84 1.83 3.75 3.75L20.71 7z"/></svg>

<?xml version="1.0" encoding="UTF-8"?><!DOCTYPE svg PUBLIC "-//W3C//DTD SVG 1.1//EN" "http://www.w3.org/Graphics/SVG/1.1/DTD/svg11.dtd"><svg xmlns="http://www.w3.org/2000/svg" xmlns:xlink="http://www.w3.org/1999/xlink" version="1.1" id="mdi-pencil-ruler" width="24" height="24" viewBox="0 0 24 24"><path d="M3 17.25V21H6.75L17.81 9.93L14.06 6.18L3 17.25M22.61 18.36L18.36 22.61L13.16 17.41L14.93 15.64L15.93 16.64L18.4 14.16L19.82 15.58L18.36 17L19.42 18L20.84 16.6L22.61 18.36M6.61 10.83L1.39 5.64L5.64 1.39L7.4 3.16L4.93 5.64L6 6.7L8.46 4.22L9.88 5.64L8.46 7.05L9.46 8.05L6.61 10.83M20.71 7C21.1 6.61 21.1 6 20.71 5.59L18.37 3.29C18 2.9 17.35 2.9 16.96 3.29L15.12 5.12L18.87 8.87L20.71 7Z" /></svg>
